X:1
T:Paddy from Portlaw
R:jig
D:Brian McNamara. Fort of Jewels
Z:Paul Stewart Cranford (P.S.C.), <http://www.cranfordpub.com>
L:1/8
M:6/8
Q:300
K:D
d|AFD DF/E/D|AFD DdB|ABd DF/G/A|BGE E2 B|
AFD F2 E|DFA Ade|fdB ABG|FGE D2:|
|:a|{b}afd dcd|afd d2 f|afd Adf|~g3 efg|
fga g2 b|afd ede|fdB ABG|FGE D2:|
